X: 9
T:Power's Price
M:4/4
L:1/8
Q:140
C:Words and music by Catherine Faber, (c) 1990
S:From "A Breeze Through the CONduit"
A:Filk
B:A Breeze Through the CONduit, (c) 1992 by Julia West
D:On the tape, "A Breeze Through the CONduit"
W:This girl with all the beauty I could never hope to own,
W:In that brief, bewitching moment between child and woman grown,
W:Mistress to a Monarch, this girl is half my age--
W:Am I only jealous that she is the better mage
W:For I have worked and studied hard, but slowly have I learned.
W:Too well I know the lessoning:  All power must be earned.
W:And yet, that's not exactly what the axiom avers. . .
W:"All power must be paid for--"  How has she paid for hers
K:F
E2|F3 D D2 F2|G D3 D2 E2|F F3 E2 C2|D4 z2 D E|F3 D D F3|
G D4 D G2|F3 F G G3|A6 z2|
A2 d2 d2 d2|cA2 F3 A2|G3 C G2 G2|A6 z2|F2 D2 D2 F2|
G D3 D2 E2|F3 F E C3|D6 E|
F2 D2 D2 F2|G D3 D2 E2|F2 F2 E C3|D6 A2|A3 A A2 A2|
G E2 C3 E2|F D3 F2 G2|
A6 A2|A3 d d2 d2|c2 A2 F2 A2|G2 C2 G2 G2|E6 E2|F D3 D2 F2|
G4 A4|F2 G F E2 C2|D6||
